X:1
T:Savior, Long Thy Saints Have Waited
T:Savior, Long Thy Saints Have Waited
T:Henry Grattan Guinness (1835-1910)
T:Fanny E. Guinness (ca. 1831-ca. 1898)
T:Public Domain Courtesy of the Cyber Hymnal™
T:Public Domain Courtesy of the Cyber Hymnal™
C:Henry Grattan Guinness (1835-1910)
Z:Public Domain
Z:Courtesy of the Cyber Hymnal™
%%score ( 1 2 ) ( 3 4 )
L:1/8
Q:1/4=100
M:4/4
K:D
V:1 treble 
V:2 treble 
V:3 bass 
V:4 bass 
V:1
 [DF]3 [DF] [A,E][A,D][A,C][A,E] | [A,E]2 [A,D]6 | [DF]3 [DF] [DG][DA][DB][CA] | [DA]6 z2 | %4
w: 1.~Sav- ior, long Thy saints have|wait- ed—|Cen- tu- ries have passed a-|way|
w: 2.~Lo! the fig tree buds and|blos- soms;|Lo! the sha- dows flee a-|way;|
w: 3.~Pre- cious, pre- cious part- ing|prom- ise!|Sweet- ly ling- er in our|ears,|
 [FA]3 [EA] [Fd][Gc][Ge][GA] | [Ge]2 [Fd]4 [Fc][FB] | [EA]3 [EA] ([D^G]F) ([DG][GB]) | %7
w: Since the prom- ise first was|giv- en Of a|glor- ious Ad- * vent *|
w: Glad we lift our heads ex-|pect- ant, Brief will|now be Thy * de- *|
w: Bright- ly gleam a- mid our|dark- ness, Gent- ly|soothe a- way * our *|
 ([^GB]2 A6) | [CE]3 [CE] [^B,^D][CE][CF][CE] | [CE]2 D6 | [DF]3 [DF] [DG][DA][EB][DE] | (E4 A4) | %12
w: day. *|Grey and old the world is|grow- ing,|Loud the scof- fer’s boast is|heard; *|
w: lay. *|Thou to raise the dead art|a- ble,|O’er the grave Thou didst pre-|vail; *|
w: fears; *|Ev- er nerve us for the|con- flict,|Ev- er fill our souls with|joy; *|
 [Dd]3 [Gd] [Ad][Af][Ae][Ad] | [Gd]4 [GB]4 | [DA]3 [DF] [CE][A,D] [CE]>D | D6 z2 || %16
w: But our hearts are peace- ful|know- ing|We may rest up- on Thy|word.|
w: Heav’n and earth may prove un-|sta- ble,|But Thy word can nev- er|fail.|
w: Christ will come and will not|tar- ry—|No- thing can our hope de-|stroy.|
"^Refrain" [FA]3 [FA] ([DF][EG]) (Ad) | [Gd]2 [Gc]6 | [EG]3 [EG] ([CE][DF]) ([EG][GB]) | %19
w: |||
w: “Sure- ly I * come *|quick- ly!|Sure- ly I * come *|
w: |||
 [^EB]2 [FA]6 | [Fd]3 [Gd] (df) (ed) | [Gd]4 [GB]3 [^EB] | [FA]2 [Fd]2 [Gd]2 [Gc]2 | [Fd]8 |] %24
w: |||||
w: quick- ly!|Sure- ly I * come *|quick- ly! A-|men, Lord Je- sus,|come!”|
w: |||||
V:2
 x8 | x8 | x8 | x8 | x8 | x8 | x5 F x2 | x2 A6 | x8 | x2 D6 | x8 | C8 | x8 | x8 | x15/2 D/ | %15
 D6 x2 || x6 F2 | x8 | x8 | x8 | x4 A2 A2 | x8 | x8 | x8 |] %24
V:3
 [D,A,]3 [D,A,] [A,,G,][A,,F,][A,,E,][A,,G,] | [D,G,]2 [D,F,]6 | %2
 [D,A,]3 [C,A,] [B,,G,][A,,F,][G,,G,][A,,G,] | [D,F,]6 z2 | %4
 [D,A,]3 [C,A,] [B,,F,][A,,A,][A,,A,][C,A,] | [C,A,]2 [D,A,]4 [D,D][D,D] | %6
 [E,C]3 [E,C] (B,A,) (B,D) | (D2 C6) | [A,,G,]3 [A,,G,] [A,,F,][A,,G,][A,,A,][A,,G,] | %9
 [D,G,]2 [D,F,]6 | [D,A,]3 [=C,A,] [B,,G,][A,,F,][G,,G,][^G,,B,] | (A,4 G,4) | %12
 [D,F,]3 [E,D] [F,D][F,D][F,=C][F,C] | B,2 C2 (D2 E2) | %14
 [A,F]3 [A,,A,] [A,,G,][A,,F,] [A,,G,]>[A,,G,] | [D,F,]6 z2 || %16
 [D,D]3 [D,D] ([D,A,][D,A,]) ([D,A,][D,A,]) | [E,A,]2 [E,A,]6 | %18
 [A,,A,]3 [A,,A,] ([A,,A,][A,,A,]) ([A,,A,][A,,A,]) | [D,^G,]2 [D,A,]6 | %20
 [D,A,]3 [E,A,] ([F,D][F,D]) ([F,=C][F,C]) | [G,B,]4 [G,D]3 [^G,D] | [A,D]2 [A,D]2 [A,E]2 [A,E]2 | %23
 [D,A,D]8 |] %24
V:4
 x8 | x8 | x8 | x8 | x8 | x8 | x4 E,2 E,2 | A,8 | x8 | x8 | x8 | A,,8 | x8 | G,4 G,4 | x8 | x8 || %16
 x8 | x8 | x8 | x8 | x8 | x8 | x8 | x8 |] %24

